dist/images/clients/nhs.svg

<svg fill="none" height="50" viewBox="0 0 121 50" width="121" xmlns="http://www.w3.org/2000/svg" xmlns:xlink="http://www.w3.org/1999/xlink"><clipPath id="a"><path d="m0 0h121v50h-121z"/></clipPath><g clip-path="url(#a)"><path d="m121 0h-121v50h121z" fill="#005eb8"/><g fill="#fff"><path d="m11.8271 4.82501h13.1615l8.0684 27.91249h.1224l5.534-27.91249h9.9416l-8.3622 40.24999h-13.1004l-8.252-27.85h-.1102l-5.4727 27.85h-9.94161z"/><path d="m52.5361 4.82501h10.566l-3.1098 15.39999h12.4882l3.1098-15.39999h10.566l-8.1908 40.24999h-10.6272l3.5016-17.2375h-12.427l-3.5016 17.2375h-10.5537z"/><path d="m113.936 13.9375c-2.708-1.2729-5.662-1.9053-8.643-1.85-4.175 0-7.5667.6375-7.5667 3.8625 0 5.7125 15.3037 3.575 15.3037 15.8 0 11.125-10.113 14.0125-19.2583 14.0125-4.1566-.0986-8.2785-.7972-12.2434-2.075l2.4487-8.1875c2.0936 1.3875 6.2686 2.3125 9.709 2.3125 3.4403 0 8.411-.6375 8.411-4.7875 0-6.4625-15.304-4.0375-15.304-15.4 0-10.375 8.9254-13.5 17.569-13.5 4.897 0 9.428.525 12.084 1.7875z"/></g></g></svg>

<svg width="121" height="50" viewBox="0 0 121 50" fill="none" xmlns="http://www.w3.org/2000/svg">
<g clip-path="url(#clip0_8_11)">
<path d="M121 0H0V50H121V0Z" fill="#005EB8"/>
<path d="M11.8271 4.82501H24.9886L33.057 32.7375H33.1794L38.7134 4.82501H48.655L40.2928 45.075H27.1924L18.9404 17.225H18.8302L13.3575 45.075H3.41589L11.8271 4.82501Z" fill="white"/>
<path d="M52.5361 4.82501H63.1021L59.9923 20.225H72.4805L75.5903 4.82501H86.1563L77.9655 45.075H67.3383L70.8399 27.8375H58.4129L54.9113 45.075H44.3576L52.5361 4.82501Z" fill="white"/>
<path d="M113.936 13.9375C111.228 12.6646 108.274 12.0322 105.293 12.0875C101.118 12.0875 97.7263 12.725 97.7263 15.95C97.7263 21.6625 113.03 19.525 113.03 31.75C113.03 42.875 102.917 45.7625 93.7717 45.7625C89.6151 45.6639 85.4932 44.9653 81.5283 43.6875L83.977 35.5C86.0706 36.8875 90.2456 37.8125 93.686 37.8125C97.1263 37.8125 102.097 37.175 102.097 33.025C102.097 26.5625 86.793 28.9875 86.793 17.625C86.793 7.25 95.7184 4.125 104.362 4.125C109.259 4.125 113.79 4.65 116.446 5.9125L113.936 13.9375Z" fill="white"/>
</g>
<defs>
<clipPath id="clip0_8_11">
<rect width="121" height="50" fill="white"/>
</clipPath>
</defs>
</svg>
